src/apps/scalable/preferences-system-network-share-windows.svg

<svg width="64" height="64" version="1.1" xmlns="http://www.w3.org/2000/svg" xmlns:xlink="http://www.w3.org/1999/xlink">
 <defs>
  <filter id="e-3" x="-.036" y="-.036" width="1.072" height="1.072" color-interpolation-filters="sRGB">
   <feGaussianBlur stdDeviation="14.343749"/>
  </filter>
  <linearGradient id="linearGradient906" x1="33.88" x2="990.12" y1="512" y2="512" gradientTransform="translate(-38.508,33.22)" gradientUnits="userSpaceOnUse">
   <stop stop-color="#171d25" offset="0"/>
   <stop stop-color="#303236" offset="1"/>
  </linearGradient>
  <linearGradient id="d-3" x1="520" x2="520" y1="4" y2="1024" gradientUnits="userSpaceOnUse">
   <stop stop-color="#323232" offset="0"/>
   <stop stop-color="#5c5c5c" offset="1"/>
  </linearGradient>
  <linearGradient id="linearGradient914" x1="34.89" x2="512" y1="272.94" y2="272.94" gradientTransform="matrix(-1.0151,0,0,-1.0151,1031.7,1031.7)" gradientUnits="userSpaceOnUse">
   <stop stop-color="#5e7ee2" offset="0"/>
   <stop stop-color="#3f9ae5" offset="1"/>
  </linearGradient>
  <filter id="filter952" x="-.06" y="-.06" width="1.12" height="1.12" color-interpolation-filters="sRGB">
   <feGaussianBlur stdDeviation="0.89999995"/>
  </filter>
 </defs>
 <linearGradient id="k" x1="16" x2="16" y1="28" y2="4" gradientTransform="matrix(2 0 0 2 4.339e-7 2.8508e-6)" gradientUnits="userSpaceOnUse">
  <stop stop-color="#eff0f1" offset="0"/>
  <stop stop-color="#fcfcfc" offset="1"/>
 </linearGradient>
 <g transform="matrix(.062745 0 0 .062745 -.12549 -.12549)" stroke-width="15.938">
  <circle cx="512" cy="512" r="478.12" filter="url(#e-3)" opacity=".25" style="paint-order:stroke markers fill"/>
  <circle cx="512" cy="512" r="478.12" fill="url(#linearGradient906)" style="paint-order:stroke markers fill"/>
  <circle cx="511.5" cy="512.5" r="431.93" fill="url(#d-3)" style="paint-order:stroke markers fill"/>
  <path d="m512 512v-478.13c-131.68 0.11995-244.12 46.822-337.26 139.91-93.204 93.204-139.85 205.86-139.85 337.71 0 0.16951 0.0041 0.33811 0.0041 0.50757z" fill="url(#linearGradient914)" stroke-width="291.43"/>
 </g>
 <path d="m32 5v27.01h-27v1h27v25.99h1v-25.99h26v-1h-26v-27.01z" fill-rule="evenodd" opacity=".2" style="paint-order:fill markers stroke"/>
 <path d="m44 14v2h-24a3.98 3.98 0 0 0-3.132 1.512 3.996 3.996 0 0 0-0.868 2.488v10a4.004 4.004 0 0 0 0.06 0.68 4.002 4.002 0 0 0 0.374 1.132 4 4 0 0 0 3.566 2.188h22a2.006 2.006 0 0 1 0.98 0.26 2.004 2.004 0 0 1 0.388 0.284 1.992 1.992 0 0 1 0.632 1.456v6a2 2 0 0 1-2 2h-22v-2l-6 4 6 4v-2h24a3.98 3.98 0 0 0 2.872-1.214 4.004 4.004 0 0 0 0.984-1.716 4.002 4.002 0 0 0 0.144-1.07v-10a4.004 4.004 0 0 0-0.06-0.68 4.002 4.002 0 0 0-0.374-1.132 4 4 0 0 0-3.566-2.188h-22a2.006 2.006 0 0 1-0.98-0.26 2.004 2.004 0 0 1-0.388-0.284 1.992 1.992 0 0 1-0.632-1.456v-6a2 2 0 0 1 2-2h22v2l6-4z" filter="url(#filter952)" opacity=".15" stroke-width="2"/>
 <path d="m44 14v2h-24a3.98 3.98 0 0 0-3.132 1.512 3.996 3.996 0 0 0-0.868 2.488v10a4.004 4.004 0 0 0 0.06 0.68 4.002 4.002 0 0 0 0.374 1.132 4 4 0 0 0 3.566 2.188h22a2.006 2.006 0 0 1 0.98 0.26 2.004 2.004 0 0 1 0.388 0.284 1.992 1.992 0 0 1 0.632 1.456v6a2 2 0 0 1-2 2h-22v-2l-6 4 6 4v-2h24a3.98 3.98 0 0 0 2.872-1.214 4.004 4.004 0 0 0 0.984-1.716 4.002 4.002 0 0 0 0.144-1.07v-10a4.004 4.004 0 0 0-0.06-0.68 4.002 4.002 0 0 0-0.374-1.132 4 4 0 0 0-3.566-2.188h-22a2.006 2.006 0 0 1-0.98-0.26 2.004 2.004 0 0 1-0.388-0.284 1.992 1.992 0 0 1-0.632-1.456v-6a2 2 0 0 1 2-2h22v2l6-4z" fill="url(#k)" stroke-width="2"/>
</svg>

<svg width="64" height="64" xmlns="http://www.w3.org/2000/svg"><defs><linearGradient id="b" x1="33.88" x2="990.12" y1="512" y2="512" gradientTransform="translate(-38.508 33.22)" gradientUnits="userSpaceOnUse"><stop stop-color="#171d25" offset="0"/><stop stop-color="#303236" offset="1"/></linearGradient><linearGradient id="c" x1="520" x2="520" y1="4" y2="1024" gradientUnits="userSpaceOnUse"><stop stop-color="#323232" offset="0"/><stop stop-color="#5c5c5c" offset="1"/></linearGradient><linearGradient id="d" x1="34.89" x2="512" y1="272.94" y2="272.94" gradientTransform="rotate(180 515.85 515.85) scale(1.0151)" gradientUnits="userSpaceOnUse"><stop stop-color="#5e7ee2" offset="0"/><stop stop-color="#3f9ae5" offset="1"/></linearGradient><filter id="a" x="-.036" y="-.036" width="1.072" height="1.072" color-interpolation-filters="sRGB"><feGaussianBlur stdDeviation="14.344"/></filter><filter id="e" x="-.06" y="-.06" width="1.12" height="1.12" color-interpolation-filters="sRGB"><feGaussianBlur stdDeviation=".9"/></filter></defs><linearGradient id="f" x1="16" x2="16" y1="28" y2="4" gradientTransform="matrix(2 0 0 2 0 0)" gradientUnits="userSpaceOnUse"><stop stop-color="#eff0f1" offset="0"/><stop stop-color="#fcfcfc" offset="1"/></linearGradient><g transform="matrix(.06274 0 0 .06274 -.125 -.125)" stroke-width="15.938"><circle cx="512" cy="512" r="478.12" filter="url(#a)" opacity=".25" style="paint-order:stroke markers fill"/><circle cx="512" cy="512" r="478.12" fill="url(#b)" style="paint-order:stroke markers fill"/><circle cx="511.5" cy="512.5" r="431.93" fill="url(#c)" style="paint-order:stroke markers fill"/><path d="M512 512V33.87c-131.68.12-244.12 46.822-337.26 139.91C81.536 266.984 34.89 379.64 34.89 511.49c0 .17.004.338.004.508z" fill="url(#d)"/></g><path d="M32 5v27.01H5v1h27V59h1V33.01h26v-1H33V5z" fill-rule="evenodd" opacity=".2" style="paint-order:fill markers stroke"/><path d="M44 14v2H20a3.98 3.98 0 0 0-3.132 1.512A3.996 3.996 0 0 0 16 20v10a4.004 4.004 0 0 0 .06.68 4.002 4.002 0 0 0 .374 1.132A4 4 0 0 0 20 34h22a2.006 2.006 0 0 1 .98.26 2.004 2.004 0 0 1 .388.284A1.992 1.992 0 0 1 44 36v6a2 2 0 0 1-2 2H20v-2l-6 4 6 4v-2h24a3.98 3.98 0 0 0 2.872-1.214 4.004 4.004 0 0 0 .984-1.716A4.002 4.002 0 0 0 48 44V34a4.004 4.004 0 0 0-.06-.68 4.002 4.002 0 0 0-.374-1.132A4 4 0 0 0 44 30H22a2.006 2.006 0 0 1-.98-.26 2.004 2.004 0 0 1-.388-.284A1.992 1.992 0 0 1 20 28v-6a2 2 0 0 1 2-2h22v2l6-4z" filter="url(#e)" opacity=".15"/><path d="M44 14v2H20a3.98 3.98 0 0 0-3.132 1.512A3.996 3.996 0 0 0 16 20v10a4.004 4.004 0 0 0 .06.68 4.002 4.002 0 0 0 .374 1.132A4 4 0 0 0 20 34h22a2.006 2.006 0 0 1 .98.26 2.004 2.004 0 0 1 .388.284A1.992 1.992 0 0 1 44 36v6a2 2 0 0 1-2 2H20v-2l-6 4 6 4v-2h24a3.98 3.98 0 0 0 2.872-1.214 4.004 4.004 0 0 0 .984-1.716A4.002 4.002 0 0 0 48 44V34a4.004 4.004 0 0 0-.06-.68 4.002 4.002 0 0 0-.374-1.132A4 4 0 0 0 44 30H22a2.006 2.006 0 0 1-.98-.26 2.004 2.004 0 0 1-.388-.284A1.992 1.992 0 0 1 20 28v-6a2 2 0 0 1 2-2h22v2l6-4z" fill="url(#f)"/></svg>
